X: 25144
T: Mairtin O'Connor's Flying Clog
R: reel
M: 4/4
K: Gmajor
|:G,2 G,/G,/G, DG,B,D|EG,CE DB,A,B,|G,2 G,/G,/G, B,G,A,B,|"D" C "U" E, "D" E,/E,/E, G,E,D,E,|
G,2 G,/G,/G, DG,B,D|EG,CE DB,A,B,|"U" C "D" E, "D" E,/E,/E, G,E,D,E,|1 D,F,A,D B,DA,B,:|
|:B,D D/D/D EDGD|ED GD EG DC|B,D D/D/D EDGD|EAAG FEDC|
B,CDB, B,CCE,|E,/E,/E, CE, D,D,B,D,|CE, E,/E,/E, G,E,D,E,|1 D,F,A,D B,G,G,A,:|
|:G2 G/G/G dGBd|eGce dBAB|G2 G/G/G BGAB|cE E/E/E GEDE|
G2 G/G/G dGBd|eGce dBAB|cE E/E/E GEDE|1 DFAd BdAB:|
|:Bd d/d/d edgd|edgd egdc|Bd d/d/d edgd|eaag fedc|
BcdB BccE|E/E/E cE DDBD|cE E/E/E GEDE|1 DFAd BGGA:|

